X: 24232
T: Lord Moira's Welcome To Scotland
R: strathspey
M: 4/4
K: Dmajor
|:(3DDD D>E F>A A>F|GE (3FED EDB,A,|
(3DDD D>E F>A A>F|1 (3Bcd ce d>B A>F:|2 (3Bcd ce d2 d>A||
d>e f>d e>d c>A|B>c d>B A ~F2 E|
d>e f>d e>d c>A|(3Bcd ce d2 d>A|
d>e f>d e>d c>A|B>c d>B A ~F2 E|
(3DDD D>E F>A A>F|(3Bcd ce d>B A>F||

